X: 76
T: Champetre
%R: jig
B: Chas & Sam Thompson "Twenty Four Country Dances for the Year 1776", London 1776, p.38 #2
F: http://www.vwml.org/browse/browse-collections-dance-tune-books/browse-thompsons1776#
Z: 2014 John Chambers <jc:trillian.mit.edu> (added dance description)
M: 6/8
L: 1/8
K: G
% - - - - - - - - - - - - - - - - - - - - - - - - - - - - -
G |\
GFG D2B | BAB G2d | dcB gfe | dcB A2G |\
GFG D2B | BAB d2g | fad eA^c | dcd D2 :|
|: d |\
ece gfe | dBG GBd | cBc A2G | FGA D2[cC] |\
[BB,2]DG Bd=F | E2^F G2c | Bec BcA | G3 G2 :|
% - - - - - - - - - - Dance description - - - - - - - - - -
%%begintext align
%% Turn your Part: right hand then left .| lead
%% down the middle up again & cast off :| the 1st
%% 2d & 3d Cu. Promenade quite round .|| cast off
%% one Cu. & right & left at top :||
%%endtext

%%sep 1 1 500
%%sep 1 1 500
